X:1
T:Di moy, amour
T:Jean Le Gendre
T:Source : Livre XVI de 29 chansons nouvelles à 4 parties---Paris---P.Attaingnant---1545. Editor : André Vierendeels ( 02/07/18) Notes : Original clefs : C1, C3, C4, F4 Original note values have been quartered in 3-beat measures Original note values have been halved Editorial accidentals above the staff
T:Di moy, amour
T:©
T:©
T:©
C:Jean Le Gendre
Z:©
%%score [ 1 [ 2 3 ] 4 ]
L:1/8
Q:1/4=120
M:3/4
K:F
V:1 treble nm="Alto" snm="A"
V:2 treble-8 nm="Tenor 1" snm="T 1"
V:3 treble-8 nm="Tenor 2" snm="T 2"
V:4 bass nm="Bass" snm="B"
V:1
 D2 F2 G2 | A4 A2 | B4 A2 | A4 G2 |[M:2/2] F2 F2 F2 F2 | D2 B2 B2 B2 | GFGA B2 B2 | %7
w: Di moy, a-|mour, si|ie fais|mon deb-|voir, de te ser-|vir, de te ser-|vir _ _ _ _ et|
w: Que n'as tu|loeil pour|à mon|mal pour-|veoir, sans me lais-|ser, sans le lais-|ser _ _ _ _ si|
"^#" A2 G2 G2 F2 |[M:2/4] G4 :|[M:2/2] z2 F4 G2 | E4 D3 E | FEFG A2 B2 | B2 B2 A2 G2 | %13
w: es- tre'o- be- is-|sant,|ie con-|gnois bien _|_ _ _ _ _ que|tu n'es si puis-|
w: long temps lan- guis-|sant,|||||
 F2 B2 B2 A2 | B4 z2 B2 | B2 A2 B2 G2 | F2 F2 z2 A2 | B2 G2 F4 | F8 | z4 z2 A2 | A2 A2 E2 F2 | %21
w: sant com- me l'on|dit, veu|que si ieu- ne|da- me, et|ten- dr'et bel-|le|en|d'a- ge flou- ris-|
w: ||||||||
 GF FE/D/ E4 | D4 z2 G2- | G2 F2 B4 | A4 z2 G2 | A3 B c2 c2 | A2 c3 B A2- |[M:2/4] A2 G2 | %28
w: |sant, tu|_ n'as pou-|voir es-|cauf- fer de ta|flam- * * *||
w: |||||||
[M:3/4] A4 z2 |: D2 F2 G2 | A4 A2 | B4 A2 | A4 G2 |[M:2/2] F2 F2 F2 F2 | D2 B2 B2 B2 | GFGA B2 B2 | %36
w: me,|pen- se'à ce-|la et|la ren-|dez fle-|chis- sant ou tu|nau- ras, ou tu|nau- * * * ras ia-|
w: ||||||||
 c2 B2 A2 G2- |"^#" G2 F2 !fermata!G4 :| %38
w: mais ser- vi- ce|_ da- me.|
w: ||
V:2
 d2 d2 d2 | f4 f2 | g4 f2 | f4 d2 |[M:2/2] d4 z2 d2 | d2 d2 B4 | _e4 d2 f2 | fedc d2 d2 | %8
w: Di moy, a-|mour, si|ie fais|mon deb-|voir, de|te ser- vir|et es- tre'o-|be- * * * * is-|
w: Que n'as tu|loeil pour|à mon|mal pour-|veoir sans|me lais- ser|si long temps|lan- * * * * guis-|
[M:2/4] B4 :|[M:2/2] z2 d4 B2 | c4 F2 d2 | d2 d2 c2 B2 | BAFG A2 d2 | d3 e f2 f2 | d4 z2 g2 | %15
w: sant,|ie con-|gnois bien que|tu n'es si puis-|sant _ _ _ _ com-|me _ _ l'on|dit, veu|
w: sant,|||||||
 g2 f2 g2 e2 | d2 d2 z2 f2 | g2 e2 d2 dd | d2 d2 A3 B | cBcd e2 d2- | d2 c3 B cd | e2 d4 c2 | d8 | %23
w: que si ieu- ne|da- me, et|ten- dr'et bel- l'en d'a-|ge flou- * *|* * * * * ris-|||sant,|
w: ||||||||
 z2 d2 G2 G2 | d6 c2 | f6 e2 | f6 f2 |[M:2/4] d4 |[M:3/4] d4 z2 |: d2 d2 d2 | f4 f2 | g4 f2 | %32
w: tu n'as pou-|voir es-|chauf- fer|de ta|flam-|me,|pen- se'à ce-|la'et la|ren- dez|
w: |||||||||
 f4 d2 |[M:2/2] d4 z2 d2 | d2 d2 B4 | _e4 d2 f2 | f2 d2 e2 c2 | d4 !fermata!B4 :| %38
w: fle- chis-|sant, ou|tu nau- ras,|ia- mais ser-|vi- * * ce|da- me.|
w: ||||||
V:3
 A2 A2 B2 | A4 d2 | d4 d2 | c4 B2 |[M:2/2] A4 z2 B2 | B2 B2 GFGA | BABc d2 d2 | c2 B2 A2 A2 | %8
w: Di moy, a-|mour, si|ie fais|mon deb-|voir, de|te ser- vir _ _ _|_ _ _ _ _ et|es- tre'o- be- is-|
w: Que n'as tu|loeil pour|à mon|mal pou-|veoir, sans|me lais- ser _ _ _|_ _ _ _ _ si|long temps lan- guis-|
[M:2/4] G4 :|[M:2/2] z2 A4 G2 | GFGA B4- | B4 z2 d2 | d2 d2 c2 B2 | A2 d2 c2 c2 | B4 z2 d2 | %15
w: sant,|ie con-|gnois _ _ _ bien,|_ que|tu n'es si puis-|sant com- me l'on|dit, veu|
w: sant,|||||||
 d2 d2 B2 c2 | A2 A2 z2 d2 | B2 c2 A4 | A4 z2 A2 | A2 A2 E2 F2 | E2 A2 A2 A2 | E2 F2 G2 A2 | %22
w: que si ieu- ne|da- me, et|ten- dr'et bel-|le en|d'a- ge flou- ris-|sant, en d'a- ge|flou- ris- * *|
w: |||||||
"^#" D8 | z4 z2 G2- | G2 F2 B4 | A4 z2 G2 | A3 B c2 c2 |[M:2/4] B4 |[M:3/4] A4 z2 |: A2 A2 B2 | %30
w: sant,|tu|_ n'as pou-|voir, es-|chauf- fer de ta|flam-|me,|pen- se'à ce-|
w: ||||||||
 A4 d2 | d4 d2 | c4 B2 |[M:2/2] A4 z2 B2 | B2 B2 GFGA | BABc d2 d2 | A2 B2 cBAG | A4 !fermata!G4 :| %38
w: la'et la|ren- dez|fle- chis-|sant, ou|tu nau- ras _ _ _|_ _ _ _ ia- mais|ser- vi- ce _ _ _|da- *|
w: ||||||||
V:4
 D,2 D,2 G,,2 | D,4 D,2 | G,4 D,2 | F,4 G,2 |[M:2/2] D,2 D,2 D,2 D,2 | B,,4 z2 _E,2 | %6
w: Di moy, a-|mour, si|ie fais|mon deb-|voir, de te ser-|vir, de|
w: Que n'as tu|loeil pour|à mon|mal pour-|veoir, sans me lais-|ser, sans|
 _E,2 E,2 B,,2 B,,2 | F,2 G,2 D,2 D,2 |[M:2/4] G,,4 :|[M:2/2] z2 D,4 E,2 | C,4 B,,2 B,,2 | %11
w: te ser- vir et|es- tre'o- be- is-|sant,|ie con-|gnois bien que|
w: me lais- ser si|long temps lan- guis-|sant,|||
 B,,2 B,,2 A,,2 G,,2 | B,,C,D,E, F,2 G,2 | D,2 B,,2 F,4 | z2 G,2 G,4- | G,2 D,2 G,2 C,2 | %16
w: fu n'es si puis-|sant _ _ _ _ com-|me l'on dit,|veu que|_ si ieu- ne|
w: |||||
 D,2 D,2 z2 D,2 | G,2 C,2 D,2 D,2 | z2 D,2 D,2 D,2 | A,,3 B,, C,2 D,2 | A,,8 | z8 | %22
w: da- me, et|ten- dr'et bel- le,|en d'a- ge|flou _ _ ris-|sant,||
w: ||||||
 z2 D,2 G,,2 G,,2 | D,4 z4 | D,4 G,,2 G,,2 | D,2 F,2 F,2 C,2 | F,6 F,2 |[M:2/4] G,4 | %28
w: tu n'as pou-|voir,|tu n'as pou-|voir es- chauf- fer|de ta|flam-|
w: ||||||
[M:3/4] D,4 z2 |: D,2 D,2 G,,2 | D,4 D,2 | G,4 D,2 | F,4 G,2 |[M:2/2] D,2 D,2 D,2 D,2 | %34
w: me,|pen- se'à ce-|la'et la|ren- dez|fle- chis-|sant, ou tu nau-|
w: ||||||
 B,,4 z2 _E,2 | _E,2 E,2 B,,2 B,,2 |"^b" F,2 G,2 C,2 E,2 | D,4 !fermata!G,,4 :| %38
w: ras, ou|tu nau- ras ia-|mais ser- vi- ce|da- me.|
w: ||||

